X: 2
T: Frank's
R: reel
M: 4/4
L: 1/8
K: Gmaj
|:GBAG E2 GE|DEGA BGAB |c3e dBGd |egdB (3ABc BA |
GBAG E2GE|DEGA BGAB |c3e dBGB |AGFA G2 (3DEF |
GBAG E2 GE|DEGA BGAB |c2 ce dBGd |egdB (3ABc BA|
GBAG DEGE |DEGA BGAB |ce e2 dBGB|AGFA Gdef||
|:gGGf GGeG |deed BGAB |c3e dBGB |ABcd ed (3def |
gGGf GGeG |deed BGAB |ce e2 dBGB |AGFA Gdef |
gGGf GGeG |deed BGAB |c3e dGBd |egdB (3ABc BA|
|GBAG E3G |DEGA BGAB |c3e dBGB |AGFA G4 ||


Tune 646	Setting 24533

